icons/chevron-double-left.svg

<svg width="24" height="24" viewBox="0 0 24 24" fill="none" xmlns="http://www.w3.org/2000/svg">
<path fill-rule="evenodd" clip-rule="evenodd" d="M17.2428 7.81965C17.5357 8.11254 17.5357 8.58741 17.2428 8.88031L14.1231 12L17.2428 15.1196C17.5357 15.4125 17.5357 15.8874 17.2428 16.1803C16.9499 16.4732 16.475 16.4732 16.1821 16.1803L12.9821 12.9803C12.7173 12.7155 12.5375 12.3577 12.5375 11.9625C12.5375 11.5794 12.7098 11.2195 13.0238 10.978L16.1821 7.81965C16.475 7.52675 16.9499 7.52675 17.2428 7.81965ZM14.0257 11.8992C14.0257 11.8992 14.026 11.8997 14.0266 11.9008L14.0257 11.8992Z" fill="black"/>
<path fill-rule="evenodd" clip-rule="evenodd" d="M11.2428 7.81965C11.5357 8.11254 11.5357 8.58741 11.2428 8.88031L8.12314 12L11.2428 15.1196C11.5357 15.4125 11.5357 15.8874 11.2428 16.1803C10.9499 16.4732 10.475 16.4732 10.1821 16.1803L6.98215 12.9803C6.71734 12.7155 6.53748 12.3577 6.53748 11.9625C6.53748 11.5794 6.70978 11.2195 7.02381 10.978L10.1821 7.81965C10.475 7.52675 10.9499 7.52675 11.2428 7.81965ZM8.02565 11.8992C8.02569 11.8992 8.02603 11.8997 8.02658 11.9008L8.02565 11.8992Z" fill="black"/>
</svg>

<svg xmlns="http://www.w3.org/2000/svg" fill="none" viewBox="0 0 24 24">
  <path fill="#000" fill-rule="evenodd" d="M17.243 7.82a.75.75 0 0 1 0 1.06L14.123 12l3.12 3.12a.75.75 0 0 1-1.06 1.06l-3.2-3.2a1.45 1.45 0 0 1-.446-1.018c0-.383.173-.742.487-.984l3.158-3.158a.75.75 0 0 1 1.06 0Zm-3.217 4.08Zm-2.783-4.08a.75.75 0 0 1 0 1.06L8.123 12l3.12 3.12a.75.75 0 0 1-1.06 1.06l-3.2-3.2a1.45 1.45 0 0 1-.446-1.018c0-.383.173-.742.487-.984l3.158-3.158a.75.75 0 0 1 1.06 0ZM8.026 11.9Z" clip-rule="evenodd"/>
</svg>
